packages/kaspersky-hexa-ui-icons/src/iconsSVGs/24/Vnf.svg

<svg width="24" height="24" viewBox="0 0 24 24" fill="none" xmlns="http://www.w3.org/2000/svg">
<path d="M12 2C9.24265 2 6.68529 3.71909 5.71576 6.62107C4.73057 6.83012 3.8681 7.31487 3.21804 8.04591C2.41871 8.94482 2 10.1484 2 11.5C2 13.4339 3.31884 15.0123 5 15.6699V13.3989C4.39536 12.9274 4 12.2307 4 11.5C4 10.564 4.28511 9.85567 4.71262 9.37491C5.13781 8.89675 5.76295 8.57617 6.57551 8.5144L7.30491 8.45895L7.47296 7.74702C8.03895 5.34926 9.9623 4 12 4C13.6763 4 15.2116 4.8719 16.1047 6.52457L16.3645 7.0054L16.9095 7.04635C18.5173 7.16717 20 8.57896 20 10.5C20 11.4537 19.6186 12.3182 19 12.9495V15.4003C20.7808 14.4899 22 12.6373 22 10.5C22 7.71401 19.9942 5.56536 17.5995 5.12214C16.3284 3.11825 14.2603 2 12 2Z" fill="black"/>
<path d="M13 9.73244C13.5978 9.38663 14 8.74028 14 8C14 6.89543 13.1046 6 12 6C10.8954 6 10 6.89543 10 8C10 8.74028 10.4022 9.38663 11 9.73244V21C11 21.5523 11.4477 22 12 22C12.5523 22 13 21.5523 13 21V9.73244Z" fill="black"/>
<path d="M9 12C9 11.4477 8.55228 11 8 11C7.44772 11 7 11.4477 7 12V18H5.73244C5.38663 17.4022 4.74028 17 4 17C2.89543 17 2 17.8954 2 19C2 20.1046 2.89543 21 4 21C4.74028 21 5.38663 20.5978 5.73244 20H7C8.10457 20 9 19.1046 9 18V12Z" fill="black"/>
<path d="M16 11C16.5523 11 17 11.4477 17 12V18H18.2676C18.6134 17.4022 19.2597 17 20 17C21.1046 17 22 17.8954 22 19C22 20.1046 21.1046 21 20 21C19.2597 21 18.6134 20.5978 18.2676 20H17C15.8954 20 15 19.1046 15 18V12C15 11.4477 15.4477 11 16 11Z" fill="black"/>
</svg>

<svg xmlns="http://www.w3.org/2000/svg" width="24" height="24" fill="none" viewBox="0 0 24 24"><path fill="#000" fill-rule="evenodd" d="M12 2C9.2427 2 6.6853 3.719 5.7158 6.621c-.9852.2091-1.8477.6939-2.4978 1.4249C2.4187 8.9449 2 10.1484 2 11.5c0 1.9339 1.3188 3.5123 3 4.1699v-2.271c-.6046-.4715-1-1.1682-1-1.8989 0-.936.2851-1.6443.7126-2.1251.4252-.4782 1.0504-.7987 1.863-.8605l.7293-.0554.168-.712C8.039 5.3493 9.9624 4 12 4c1.6764 0 3.2116.8719 4.1047 2.5246l.2598.4808.545.041C18.5173 7.1672 20 8.579 20 10.5c0 .9537-.3814 1.8182-1 2.4495v2.4508c1.7808-.9104 3-2.763 3-4.9003 0-2.786-2.0058-4.9346-4.4005-5.3779C16.3284 3.1183 14.2603 2 12 2m1 7.7324c.5978-.3458 1-.9921 1-1.7324 0-1.1046-.8954-2-2-2s-2 .8954-2 2c0 .7403.4022 1.3866 1 1.7324V21c0 .5523.4477 1 1 1s1-.4477 1-1zM9 12c0-.5523-.4477-1-1-1s-1 .4477-1 1v6H5.7324c-.3458-.5978-.9921-1-1.7324-1-1.1046 0-2 .8954-2 2s.8954 2 2 2c.7403 0 1.3866-.4022 1.7324-1H7c1.1046 0 2-.8954 2-2zm7-1c.5523 0 1 .4477 1 1v6h1.2676c.3458-.5978.9921-1 1.7324-1 1.1046 0 2 .8954 2 2s-.8954 2-2 2c-.7403 0-1.3866-.4022-1.7324-1H17c-1.1046 0-2-.8954-2-2v-6c0-.5523.4477-1 1-1"/></svg>
